X: 15849
T: Gortree, The
R: jig
M: 6/8
K: Emajor
|:E3 GBE|cBG BGE|~c3 efe|~g3 bge|
BGE EGE|cBG Bce|~g3 bgf|egf e3:|
|:bge ~c2B|GBE cec|~B2g bge|c2a fef|
~g3 gfe|~c2B GEC|B,EG BGE|FGF E3:|
|:~B2E GFE|~c2E BGE|{B,}C3 (3A,B,C E|FGE C2E|
~B,3 CEB,|GBG EGB|~c3 Beg|bgf e3:|

